X:1
T:Einzug der Géitter ih Walhall.
T:Das Rheingold.
T:Einzug der Géitter ih Walhall.
T:Entrée des Dieux dans le Walhall.
T:Wa er.
T:8 .................................................................................................. ..; ............................................................. ..
T:L’Or du Rhin.
T:Entrance of the Gods into Walhalla.
T:252
T:252
T:252
T:252
T:252
T:252
T:252
T:252
C:8 .................................................................................................. ..; ............................................................. ..
Z:252
%%score { ( 1 3 ) | ( 2 4 5 ) }
L:1/8
Q:1/4=120
M:3/4
K:F
V:1 treble nm="Part_1"
V:3 treble 
V:2 bass 
V:4 bass 
V:5 bass 
V:1
"^Moderato." !arpeggio!e4!pp! [GBd]/e/[GBd]/e/[GBd]/e/ (6:4:6[GBd]/e/[GBd]/e/[GBd]/e/ (6:4:6[GBd]/e/[GBd]/e/[GBd]/e/ | %1
!f!!f! [GBd]3 x e3 x2!ff!!ff! |!ff! [GBd]3!ff! M[GBd]3!ff! [GBd]3 x"^ch"!p!!mp! || %3
[K:Db]!ff! !tenuto![GBd]3!f!!f! [GBd]3!f!!f! [GBd]3 x |!f!!f! [GBd]3!f!!f! [GBd]3!f!!f! [GBd]3 x2 | %5
!f!!f! !tenuto![GBd]3 x e3 x2!f!!f!!f!!f! |!ff! [GBd]3!f!!f! [GBd]3!ff! [GBd]3 x | %7
 .[Ae]6 e3!f!!f! |!f! [GBd]3!f! [GBd]3!f! [CGBd]3 x2 |!f! [GBd]3 x e3 x2!f!!f! | %10
!f! [GBd]3!f! !tenuto![GBd]3!f! [GBd]3 x |!f! [GBd]3!f! [GBd]3!f! [GBd]3 x | %12
!f! [GBd]3!f! [GBd]3!f! !tenuto![GBd]3 x2 |!f! [GBd]3 x e3 x2!f!!f! | [GBd]3 [GBd]3!ff! [GBd]3 x | %15
!f! !tenuto![GBd]3!f! [GBd]3!f! [GBd]3 x | [GBd]3!f! [GBd]3 [CGBd]3 x2 || %17
[K:F]!f! !arpeggio![_GB_d]3!f! [GBd]3!f! [GBd]3 x2 |!f! !tenuto![GBd]3!f! [GBd]3!f! [GBd]3 x2 | %19
!f! !tenuto![GBd]3!f!!f! [GBd]3 e3!f!!f! | %20
!p! [FAd] z .[A,DDF-]3!<(! [F,A,D]"_— 1" .[G,B,B,] [F,A,D]/ [F,A,D][A,CE]!<)! [A,_DF]2 || %21
[K:Bb][M:3/4][K:treble]!p! ([A,_DF_A]2!p!!<(! [_A,A,DF]3!<)! [F,A,D] | %22
!>(! [G,B,]>[F,A,D] [F,A,D][A,CE]!>)! [A,DF])(3A,/4A,/4A,/4 x/ | %23
!p! (.[F,A,DD]>[A,CE] [A,CE].[A,DF] [A,DF]) z/ (3[A,A]/4 [A,A]/4 [A,A]/4 | %24
 ([F,A,D]>[A,CE] [A,CE].[A,DF] [DFA])z/4(3[Dd]/4[Dd]/4M[Dd]/4 x/4 || %25
[K:Db] ([B,DGA]>[DFA] [DFA].[DGB] [DGB]) z/ (3[Dd]/4 [Dd]/4 [Dd]/4 | %26
 (.[B,DDG]>[DFA] [DFA].[DGB] [DGB]) z/ [B,B]/4 .[B,B]/4 [B,B]/4 | %27
 ([=DFB]>[F=Ac]"_0 0 0" [FAc].[FB=d] [FBd]) z/ (3[Ff]/4 [Ff]/4 [Ff]/4 | %28
 ([=DFB]3[K:bass-8] !wedge![A,,=C,=E,].[A,,=D,=F,] [A,,D,F,])!wedge!A,,/4A,,/4A,,/4 x/4 | %29
[K:treble]!f! ([F=Ac]2!<(! [CFA]3!<)! [=A,CF] | %30
[I:staff +1] !tenuto![B,,,B,,]3/4[I:staff -1] [G,B,B,=D][I:staff +1]F,,/[I:staff -1] [A,CF]/ [A,CF][B,C=E=G] [=A,CF=A])(3C/4C/4C/4 | %31
!p! ([F_Ac]2 [CFA]3 [A,CF] | .[F,B,B,_D]>[A,CE]!>(! [A,CE][A,_CF] [A,CF]!>)![CA] | %33
 [FA]2)"_0" [EG]3 E | [G,A,]4!p! E3 =D!p!CD || %35
[K:F][I:staff +1] !arpeggio!B,,4[I:staff -1] (!arpeggio!B4!pp! (.[G,G,B,E]>)[B,=DF] [B,DF].[B,EG] [B,EG]3/2)(3[B,B]/4[B,B]/4[B,B]/4 | %36
 .[G,B,-B,E]>[B,=DF] [B,DF].[B,EG] [B,EG](3B,/4B,/4B,/4 x/ | %37
 ([_CDFA]>[B,DGB] [B,DGB].[CFA_c] [CFAc]) z/4 (3D/4 D/4 D/4 x/4 | %38
 ([_CDFA]>[B,DGB] [B,DGB].[CFA_c] [CFAc]) z/4 (3D/4 D/4 D/4 x/4 | %39
 !arpeggio!B4!pp! ([_GBd]2 [DGB]3 [B,DG] | %40
 [G,_CE]>[B,DG] [B,DG][CDFA] [B,DGB]) z/4!<(! [B,B]/4 [B,B]/4!<)! [B,B]/4 | %41
!>(! ([D=GBe]2!>)! [_CEA_c]3 [CEA] | [A,DD_F=F]>[E_G] [EG][=DA] [DA]2) | %43
 [=C-A][EA=c].[_D=GBc]>[CEA] [CEA][I:staff +1] A,,[I:staff -1] (3E/4 E/4 E/4 || %44
[K:Db] (E[EAc][D=GB]>[CEA] [CEA]3/2)(E/4.E/4E/4 | [DE=GB]!p![CEA]) ([DEGB][CEA] ([DEGB]>)[CEAc] | %46
 [CEAc]4) (E>e | [D=Ge]6 E |!p! [CEA]4)!>(! [A,C]>!>)!A |!p! [CE_G]2 [DF]3 [B,D] x3 || %50
[K:Ab][K:treble]!<(! [=G,=B,]2 x/12!<)! [=D_F]2 x23/12 |!p! [C=E_G]2 x4 | %52
!<(! [=G,=B,]2 (3:2:2!wedge![B,=D]2 [_C=E]!<)! [D_F]2 |!p! [=A,C=E]2 x4 | %54
 [c=e]2 (3:2:1([eg]2[I:staff +1] D,3[I:staff -1] (3:2:2!arpeggio![f=aa]2 [g=b]2) | %55
 [f=ac'] [g=b]3 [=eg] x | [c=e]2 x4[K:treble+8] |[K:bass] C,4!pp!!<(! ([F,=A,=D]3[K:treble] x/ | %58
 .[FF=A][A=d]/!<)!!f! [Fdf]3) x3/2 |!f! [=D=d]6- | d2 =B4 | ([=D=A-]6 | A6)!p! | %63
!p! ([F,F,=A,=DD][A,C=E]/ x/ [A,CE].[A,DF] [A,DF]2) | %64
 (!wedge![=A,=D]>!p![A,C=E] [A,CE].[A,DF] [A,DF]2) | %65
[M:3/4][K:bass-8]!<(! !arpeggio![=D,,-_F,,]>G,, G,,.[C,,F,,=A,,] [C,,^D,,A,,]2 | %66
!>(! ([D,,=F,,]3 x [C,,=D,,=A,,]2) | %67
!pp! [=D,,-D,,G,,]>[C,,=F,,=A,,] [C,,F,,A,,].[D,,G,,=B,,] [D,,G,,B,,]2 | %68
 ([=D,,G,,]>[C,,=F,,=A,,] [C,,F,,A,,].[D,,G,,=B,,] [D,,G,,B,,]2) | %69
 ([_E,,G,,]>[E,,=B,,] [E,,B,,][G,,B,,_E,][_F,,_F,][G,,G,]) | %70
[K:treble][I:staff +1] !arpeggio!_B,,4 [G,,A,,G,]>E, E,_C,G,,C,[I:staff -1] x | %71
 (.[=B,B,=DG=A][DFA]/ x/ [DFA][G=B]=dB) |"_0 0" ([=B,=EG]3/2 [=DF=A]2 x5/2 | %73
 .[=DF=AA]>).D .D.[DF].[DF].[DFA] |!f! .[=DFF=A].[FA=d]/ x/ .[FAd].[Adf].[Adf].[df=a] | %75
 !arpeggio![=Bc=e]4 [fac'f']2!f! [_eac'e']2 z a2[K:treble+8] |!ff! [=df=a=d']3 [dfad']3 | %77
 [=df=a=d']3 [dfad']3 | [=df=a=d']3 [dfad']3 | !wedge![=df=a=d']3 !wedge![dfad']3 | %80
 !wedge![=df=a=d']3 !wedge![dfad']3 | !wedge![=df=a=d']3 [dfad']3 | %82
[K:treble] =B4[I:staff +1] A,,2 [F,,F,]2 [D,,D,]2[I:staff -1] x2 | [=df=a=d']3 [dfad']3 | %84
 [=df=a=d']3 [dfad']3 | [=df=a=d']3 [dfad']3 | !wedge![=df=a=d']3 [dfad']3 | %87
 [=df=a=d']3 !^![dfad']3 |!ff!!p! [=df=d']6 | [F=A=df]6 | .!fermata![=DF=d=e]4 x2 |] %91
V:2
 x4 !tenuto![G,,,G,,]2 x =B,,3 D, | G,3/2[I:staff -1] e3[I:staff +1] =B,/ D2 B,2 | %2
 G,2[I:staff -1] e3 e3[I:staff +1] x2 ||[K:Db] D,2[I:staff -1] e3 e3[I:staff +1] x2 | %4
 B,,2[I:staff -1] !tenuto!e3 e3 e3 |[I:staff +1] B,3/2[I:staff -1] e3[I:staff +1] D/ G2 D2 | %6
 B,2[I:staff -1] e3 e3[I:staff +1] x2 |[I:staff -1] [CGBd]6[I:staff +1] x3 | %8
 D,2[I:staff -1] e3 e3 e3 |[I:staff +1] F,,3/2[I:staff -1] e3[I:staff +1] B,,/ D,2 B,,2 | %10
[K:bass] F,,2[I:staff -1] !tenuto!e3 e3[I:staff +1] x2 | %11
 B,2[I:staff -1] !tenuto!e3 e3[I:staff +1] x2 | %12
[K:treble] [G,,B,,D,G,]2[I:staff -1] !tenuto!e3 e3 e3 | %13
[I:staff +1] G3/2[I:staff -1] e3[I:staff +1] B/ d2 B2 | %14
 G2[I:staff -1] e3[I:staff +1][K:bass][I:staff -1] !tenuto!e3[I:staff +1] x2 | %15
 D2[I:staff -1] e3 !tenuto!e3[I:staff +1] x2 | B,2[I:staff -1] e3 e3 e3- || %17
[K:F][I:staff +1] B,2[I:staff -1] e3 e3 e3 |[I:staff +1] B,2-[I:staff -1] e3 e3 e3 | %19
[I:staff +1] (B,2[I:staff -1] e3 [GBd]3[I:staff +1] x | %20
 [D,F,A,D]2) [D,,D,E,]3 [D,,D,] [G,,D,]3 [_D,,D,]2 x/ || %21
[K:Bb][M:3/4][K:bass] !arpeggio!_D,2 [_D,,D,]3 [D,,D,] | %22
 [G,,A,,D,]>[D,,D,] [D,,D,][A,,,A,,] [D,,D,]2 | [D,,D,]>[A,,,A,,] [A,,,A,,][D,,D,] [D,,D,]2 | %24
 [D,,D,]>[A,,,A,,] [A,,,A,,][D,,D,] [D,,D,]2 ||[K:Db] [D,,D,]3 [G,,D,] [G,,D,]2 | %26
 [D,,D,]3 [G,,D,] [G,,D,]2 x/4 | [F,,F,]3 [B,,,B,,] [B,,,B,,]2 | [F,,F,]3 x [B,,,B,,] [B,,,B,,]2 | %29
 F,4- F,2 |!>(! x9/4!>)! F,,[C,,C,] F,,C,/4.C,/4C,/4 x/4 | F,4- F,2 | %32
 [B,,,B,,,B,,]>[A,,,A,,] [A,,,A,,][D,,D,] [D,,D,]2 | [G,,,G,,]6 | x4 !^![F,,,F,,F,,]6 || %35
[K:F] x8 !tenuto![_E,,,_E,,]>[B,,,B,,] [B,,,B,,][E,,_E,] [E,,E,]2 | [_E,,_E,]3/2[B,,,B,,] x7/2 | %37
 [_D,,_D,]>[_G,,D,] [G,,D,]D, [D,,D,]2 | [_D,,_D,]>[_G,,D,] [G,,D,]D, [D,,D,]2 | %39
 x4 [_G,,_G,]4 !tenuto![_G,,,G,,]2 | [_C,,=C,,_C,]>[G,,G,] [G,,G,][D,,D,] [G,,G,]2 | %41
 [E,,E,]2 [A,,E,]2 A,,2 | D,>[_C,E,G,] [C,E,_G,][_F,A,] A,B, | z =C,E,>A, A,2 x/ || %44
[K:Db] E,,2 E,3/2A, x7/4 | [E,,E,]A,, [E,,E,]A,, [E,,E,,E,E,][A,,E,]/ x/ | [E,E,]4 F,,2 | %47
[I:staff -1] [ce]4 B3 |[I:staff +1] [A,,,A,,]2 [_G,,,_G,,]2 [_F,,,_F,,]2 | E,,,6 x3 || %50
[K:Ab][K:bass] !wedge!E,,,3/4[I:staff -1] (3:2:1[=B,=D]2[I:staff +1] E,,3/4[I:staff -1] (3:2:1[_C=E][I:staff +1] x5/2 | %51
 E,,,3/4[I:staff -1] [=DF]3[I:staff +1] E,,3/4[I:staff -1] [=B,D][I:staff +1] x/ | %52
 E,,,3 E,,3/2 x3/2 | %53
 D,,3/4[I:staff -1] [=B,=D]3!p![I:staff +1] D,3/4[I:staff -1] [G,B,][I:staff +1] x/ | x9 | %55
 D,,3 D,3 | C,,3/4[I:staff -1] [=eG]2[I:staff +1] .C,,3/4[I:staff -1] [g'=b]2[I:staff +1] x/ | %57
[K:bass] x4 !tenuto!C,,3/4C,3/4[I:staff -1] [=A,F]>[=D=G] |[I:staff +1] [C,F,]2 A,2 [C,F,A,] z | %59
 .[B,,F,]6 |[I:staff -1] D6 |[I:staff +1] [A,,D,E,F,G,]6 | z2[I:staff -1] C2[I:staff +1] x2 | %63
[K:bass+8] !tenuto!A,,>G, G,F,D,A,, | [A,,F,]>G, G,F,D,A,, | %65
[M:3/4][K:bass] !arpeggio![A,,F,]>G, G,_F,^D,B,, | [A,,F,]>G, G,F,=D,B,, | [G,,G,]>F, F,E,B,,G,, | %68
 [G,,G,]>F, F,E,B,,G,, | [G,,G,]>E, E,_C,G,,C, | %70
 x4[I:staff -1] ([_C=E]>[CG] [CG][EG_c][=D=d] [E=e]2) |[I:staff +1] [G,,G,]>D, D,G,B,G, | %72
 E,>D, D,B,,G,,E,, | !tenuto![A,,,A,,]3/2 [F,A,]/ [F,A,]A,[F,A,][D,A,] | %74
 [A,,A,]>[A,D] [A,D][F,A,D][F,A,D][D,F,A,] | %75
[K:bass] x4 [_A,,_E,G,].[A,,E,G,][A,,E,G,][A,,E,G,][A,,E,G,][A,,E,G,] x | %76
 [D,,,D,,]2 [F,,,F,,F,,]3 [A,,,A,,] | [D,,D,]>[F,,F,] [A,,A,]2 x2 | [D,,D,]2 [A,,,A,,]2 x2 | %79
 !tenuto![A,,,A,,]2 [F,,,F,,]2 x2 | [F,,,F,,]2 !tenuto![A,,,A,,]3 [D,,D,] | %81
 [F,,F,]>[A,,A,] [D,D]2 x2 |[K:bass] x6[I:staff -1] [_df=a=d']3 [dfa_d']3 | %83
[I:staff +1] [D,,D,]2 !tenuto![A,,,A,,]2 x2 | !tenuto![A,,,A,,]2 [D,,D,]3 [F,,F,] | %85
 [A,,A,]3/2[D,D] [F,F]2 x3/2 | [A,A]2 [F,F]2 x2 | [F,F]2 [D,D]2 x2 | [D,,F,,A,,D,]6 | [D,A,D]6 | %90
 [D,,A,,F,]6 |] %91
V:3
 x11 | x2 [GBd]3 e3 x | x3[I:staff +1] D,2 x =B,,_C, x2 ||[K:Db] x3 B,,2 x G,,A,, x2 | %4
 x3 D,3 x2 G, x2 | x2[I:staff -1] !tenuto![GBd]3 e3 x | x3[I:staff +1] G,2 x D,F, x2 | %7
 G,2 D,2[I:staff -1] e3 x2 | x3[I:staff +1] G,3 x2 D,, x2 | x2[I:staff -1] [GBd]3 e3 x | %10
 x3[I:staff +1] B,2 x G,A, x2 | x3 G,2 x D,F, x2 | x3 B,3 x2 D x2 | x2[I:staff -1] [GBd]3 e3 x | %14
 x3[I:staff +1] D2 x B,_C x2 | x3 B,2 x G,A, x2 | x3 G,3 x2 A, x2 ||[K:F] x3 _G,3 x2 A, x2 | %18
 x3 G,3 x2 [G,B,]2 x | x3 G,3/2[I:staff -1] e3 x3/2 | x7[I:staff +1] [D,,D,]2 x5/2 || %21
[K:Bb][M:3/4][I:staff -1][K:treble] x6 | x6 | x6 | x6 ||[K:Db] x6 | x25/4 | x6 | x3[K:bass-8] x4 | %29
[K:treble][I:staff +1] F,,4- F,,F,, | x25/4 | F,,4- F,,F,, | x6 | x6 | x10 ||[K:F] x14 | %36
 x2 [B,,,B,,][_E,,_E,] [E,,E,]2 | x6 | x6 | x10 | x6 | x6 | x4 _F,2 | E,,4 z x3/2 || %44
[K:Db] E,,C, x2 A,A,, x/4 | x6 | A,,2 =G,,2 x2 | E,6 x | x6 | x5 E,,4 || %50
[K:Ab][I:staff -1][K:treble] x6 | x6 | x6 | x6 | x9 | x6 | x7/2[K:treble+8] x5/2 | %57
[K:bass] x19/4 [=G,=D=E]2[K:treble] x3/4 | x3[I:staff +1] z x2 | x6 | [G,,D,B,]6 | x6 | x6 | x6 | %64
 x6 |[M:3/4][I:staff -1][K:bass-8] x6 | x3/2 G,,/ G,,.[C,,F,,=A,,] x2 | x6 | x6 | x4 =B,,2 | %70
[K:treble] x8 G2 x | x4 G2 | x2 [=DF=A][D=B][GB=d][DGB] | x6 | x6 | x10[K:treble+8] x | %76
 x2 [=df=a=d']3 x | x2 [=df=a=d']3 x | x2 [=df=a=d']3 x | x2 [=df=a=d']3 x | x2 [=df=a=d']3 x | %81
 x2 [=df=a=d']3 x |[K:treble] x8 [df=a_d']3 x | x2 [=df=a=d']3 x | x2 !wedge![=df=a=d']3 x | %85
 x5/2 [=df=a=d']3 x/ | x2 [=df=a=d']3 x | x2 [=df=a=d']3 x | x6 | x6 | x6 |] %91
V:4
 x11 | x9/2[I:staff -1] [GBd]3 x3/2 | x7 e3 ||[K:Db] x7 e3 | x11 | x9/2 [GBd]3 x3/2 | x7 e3 | %7
 x2 [GBd]3 [GBd]3 x | x11 | x9/2 [GBd]3 x3/2 |[I:staff +1][K:bass] x7[I:staff -1] !tenuto!e3 | %11
 x7 e3 |[I:staff +1][K:treble] x11 | x9/2[I:staff -1] [GBd]3 x3/2 | %14
 x5[I:staff +1][K:bass] x2[I:staff -1] !tenuto!e3 | x7 e3 | x11 ||[K:F] x11 | x11 | %19
 x6[I:staff +1] B, x2 | x15/2 [D,,D,]2 x2 ||[K:Bb][M:3/4][K:bass] x6 | x6 | x6 | x6 ||[K:Db] x6 | %26
 x25/4 | x6 | x7 | x6 | x25/4 | x6 | x6 | x6 | x10 ||[K:F] x14 | x6 | x6 | x6 | x10 | x6 | x6 | %42
 x6 | x13/2 ||[K:Db] x4 A,2 x/4 | x6 | x6 | x7 | x6 | x9 ||[K:Ab][K:bass] x6 | x6 | x6 | x6 | x9 | %55
 x6 | x6 |[K:bass] x15/2 | x6 | x6 | x6 | x6 | x6 |[K:bass+8] x6 | x6 |[M:3/4][K:bass] x6 | x6 | %67
 x6 | x6 | x6 | x11 | x6 | x6 | x6 | x6 |[K:bass] x11 | x6 | x3 [F,,F,]2 x | %78
 x3 [F,,,F,,F,,]>[G,,,G,,] x | x3 [D,,,D,,,D,,D,,]!tenuto![E,,,E,,]/ x3/2 | x6 | x3 [A,,A,]2 x | %82
[K:bass] x9 [A,,,A,,]>!tenuto![C,,C,] x | x3 [F,,,F,,]3/4[G,,,G,,]/ x7/4 | x6 | x3 [D,D]2 x | %86
 x3 [D,D]>[E,E] x | x3 [A,,A,]>[F,,F,] x | x6 | x6 | x6 |] %91
V:5
 x11 | x9 | x10 ||[K:Db] x10 | x11 | x9 | x10 | x5 B,,_C, x2 | x11 | x9 |[K:bass] x10 | x10 | %12
[K:treble] x11 | x9 | x5[K:bass] x5 | x10 | x11 ||[K:F] x11 | x11 | x9 | %20
 x17/2 !tenuto![A,,,A,,]2 x ||[K:Bb][M:3/4][K:bass] x6 | x6 | x6 | x6 ||[K:Db] x6 | x25/4 | x6 | %28
 x7 | x6 | x25/4 | x6 | x6 | x6 | x10 ||[K:F] x14 | x6 | x6 | x6 | x10 | x6 | x6 | x6 | x13/2 || %44
[K:Db] x25/4 | x6 | x6 | x7 | x6 | x9 ||[K:Ab][K:bass] x6 | x6 | x6 | x6 | x9 | x6 | x6 | %57
[K:bass] x15/2 | x6 | x6 | x6 | x6 | x6 |[K:bass+8] x6 | x6 |[M:3/4][K:bass] x6 | x6 | x6 | x6 | %69
 x6 | x11 | x6 | x6 | x6 | x6 |[K:bass] x11 | x6 | x6 | x6 | x6 | x6 | x6 |[K:bass] x12 | x6 | x6 | %85
 x6 | x6 | x6 | x6 | x6 | x6 |] %91

